X:668
T:Mr. James George
R:Strathspey
B:The Athole Collection
M:C
L:1/8
K:C
F|E/F/G C>E E>G c<G|A>c A/G/F/E/ F<D D>F|E/F/G C>G E<G c>G|
A<c G>F E<CC:|
e/f/|g<ca<c g<ce<c|G>c GF/E/ D<d de/f/|g<ca<c g<ce<c|G<c G>F E<C Ce/f/|
g<ca<c g<ce<c|G>c GF/E/ D<d de/f/|g>e a<f g<cd<c|G>c GF/E/ G<c~c||

